build/img/paying/paying__advice-1.svg

<svg width="65" height="92" viewBox="0 0 65 92" fill="none" xmlns="http://www.w3.org/2000/svg">
<g id="Group 9">
<path id="Vector" d="M59.5 7.75H5.5C3.567 7.75 2 9.317 2 11.25V87.25C2 89.183 3.567 90.75 5.5 90.75H59.5C61.433 90.75 63 89.183 63 87.25V11.25C63 9.317 61.433 7.75 59.5 7.75Z" stroke="#202020" stroke-width="3"/>
<path id="Vector_2" d="M41.5 1.75C42.3285 1.75 43 2.42156 43 3.25C43 5.73526 45.0147 7.75 47.5 7.75C48.3285 7.75 49 8.42156 49 9.25V11.25C49 12.6307 47.8807 13.75 46.5 13.75H18.5C17.1193 13.75 16 12.6307 16 11.25V9.25C16 8.42156 16.6715 7.75 17.5 7.75C19.9853 7.75 22 5.73526 22 3.25C22 2.42156 22.6715 1.75 23.5 1.75H41.5Z" fill="#F5F5F5" stroke="#202020" stroke-width="3"/>
<path id="Vector_3" d="M9.5 26.75H43.5" stroke="#202020" stroke-width="3"/>
<path id="Vector_4" d="M9.5 36.75H43.5" stroke="#202020" stroke-width="3"/>
<path id="Vector_5" d="M15.5 46.75H43.5" stroke="#FF4505" stroke-width="3"/>
<path id="Vector_6" d="M15.5 56.75H43.5" stroke="#FF4505" stroke-width="3"/>
<path id="Vector_7" d="M15.5 66.75H43.5" stroke="#FF4505" stroke-width="3"/>
<path id="Vector_8" d="M15.5 76.75H43.5" stroke="#FF4505" stroke-width="3"/>
<path id="Vector_9" d="M11 48.25C11.8284 48.25 12.5 47.5784 12.5 46.75C12.5 45.9216 11.8284 45.25 11 45.25C10.1716 45.25 9.5 45.9216 9.5 46.75C9.5 47.5784 10.1716 48.25 11 48.25Z" fill="#FF4505"/>
<path id="Vector_10" d="M11 58.25C11.8284 58.25 12.5 57.5784 12.5 56.75C12.5 55.9216 11.8284 55.25 11 55.25C10.1716 55.25 9.5 55.9216 9.5 56.75C9.5 57.5784 10.1716 58.25 11 58.25Z" fill="#FF4505"/>
<path id="Vector_11" d="M11 68.25C11.8284 68.25 12.5 67.5784 12.5 66.75C12.5 65.9216 11.8284 65.25 11 65.25C10.1716 65.25 9.5 65.9216 9.5 66.75C9.5 67.5784 10.1716 68.25 11 68.25Z" fill="#FF4505"/>
<path id="Vector_12" d="M11 78.25C11.8284 78.25 12.5 77.5784 12.5 76.75C12.5 75.9216 11.8284 75.25 11 75.25C10.1716 75.25 9.5 75.9216 9.5 76.75C9.5 77.5784 10.1716 78.25 11 78.25Z" fill="#FF4505"/>
<g id="Group 6">
<path id="Vector_13" d="M47.549 26.2965C47.5225 25.7266 47.9774 25.25 48.5479 25.25H54.4527C55.0232 25.25 55.4781 25.7266 55.4516 26.2965L53.5447 67.2965C53.5198 67.8301 53.08 68.25 52.5457 68.25H50.4549C49.9206 68.25 49.4808 67.8301 49.4559 67.2965L47.549 26.2965Z" fill="#FF4505"/>
<path id="Vector_14" d="M49.5 77.25C49.5 77.8023 49.9477 78.25 50.5 78.25H52.5C53.0523 78.25 53.5 77.8023 53.5 77.25V75.25C53.5 74.6977 53.0523 74.25 52.5 74.25H50.5C49.9477 74.25 49.5 74.6977 49.5 75.25V77.25Z" fill="#FF4505"/>
</g>
</g>
</svg>

<svg width="65" height="92" fill="none" xmlns="http://www.w3.org/2000/svg"><g id="Group 9"><path id="Vector" d="M59.5 7.75h-54a3.5 3.5 0 00-3.5 3.5v76a3.5 3.5 0 003.5 3.5h54a3.5 3.5 0 003.5-3.5v-76a3.5 3.5 0 00-3.5-3.5z" stroke="#202020" stroke-width="3"/><path id="Vector_2" d="M41.5 1.75a1.5 1.5 0 011.5 1.5 4.5 4.5 0 004.5 4.5 1.5 1.5 0 011.5 1.5v2a2.5 2.5 0 01-2.5 2.5h-28a2.5 2.5 0 01-2.5-2.5v-2a1.5 1.5 0 011.5-1.5 4.5 4.5 0 004.5-4.5 1.5 1.5 0 011.5-1.5h18z" fill="#F5F5F5" stroke="#202020" stroke-width="3"/><path id="Vector_3" d="M9.5 26.75h34" stroke="#202020" stroke-width="3"/><path id="Vector_4" d="M9.5 36.75h34" stroke="#202020" stroke-width="3"/><path id="Vector_5" d="M15.5 46.75h28" stroke="#FF4505" stroke-width="3"/><path id="Vector_6" d="M15.5 56.75h28" stroke="#FF4505" stroke-width="3"/><path id="Vector_7" d="M15.5 66.75h28" stroke="#FF4505" stroke-width="3"/><path id="Vector_8" d="M15.5 76.75h28" stroke="#FF4505" stroke-width="3"/><path id="Vector_9" d="M11 48.25a1.5 1.5 0 100-3 1.5 1.5 0 000 3z" fill="#FF4505"/><path id="Vector_10" d="M11 58.25a1.5 1.5 0 100-3 1.5 1.5 0 000 3z" fill="#FF4505"/><path id="Vector_11" d="M11 68.25a1.5 1.5 0 100-3 1.5 1.5 0 000 3z" fill="#FF4505"/><path id="Vector_12" d="M11 78.25a1.5 1.5 0 100-3 1.5 1.5 0 000 3z" fill="#FF4505"/><g id="Group 6" fill="#FF4505"><path id="Vector_13" d="M47.549 26.297a1 1 0 01.999-1.047h5.905a1 1 0 01.999 1.047l-1.907 41a1 1 0 01-1 .953h-2.09a1 1 0 01-1-.954l-1.906-41z"/><path id="Vector_14" d="M49.5 77.25a1 1 0 001 1h2a1 1 0 001-1v-2a1 1 0 00-1-1h-2a1 1 0 00-1 1v2z"/></g></g></svg>
